icons/tokens/0x0FCDAeDFb8A7DfDa2e9838564c5A1665d856AFDF/logo.svg

<svg width="32" height="32" viewBox="0 0 32 32" fill="none" xmlns="http://www.w3.org/2000/svg">
<path fill-rule="evenodd" clip-rule="evenodd" d="M32 15.9999C32 13.9059 31.5834 11.8118 30.7821 9.87706C29.9805 7.94234 28.7942 6.16698 27.3136 4.68634C25.833 3.20538 24.0576 2.01946 22.1229 1.21786C20.1882 0.416575 18.0941 -6.48499e-05 16 -6.48499e-05C13.9059 -6.48499e-05 11.8115 0.416575 9.8768 1.21786C7.94208 2.01946 6.16704 3.20538 4.68608 4.68634C3.20544 6.16698 2.0192 7.94234 1.21792 9.87706C0.41632 11.8118 0 13.9059 0 15.9999C0 18.094 0.41632 20.1881 1.21792 22.1228C2.0192 24.0575 3.20544 25.8329 4.68608 27.3139C6.16704 28.7945 7.94208 29.9807 9.8768 30.782C11.8115 31.5833 13.9059 31.9999 16 31.9999C18.0941 31.9999 20.1882 31.5833 22.1229 30.782C24.0576 29.9807 25.833 28.7945 27.3136 27.3139C28.7942 25.8329 29.9805 24.0575 30.7821 22.1228C31.5834 20.1881 32 18.094 32 15.9999Z" fill="white"/>
<path fill-rule="evenodd" clip-rule="evenodd" d="M11.8547 3.38361C13.3453 2.89369 14.9382 2.66969 16.5161 2.73017C18.0944 2.79065 19.6579 3.13593 21.1129 3.74393C22.5683 4.35193 23.9152 5.22297 25.0675 6.29753C26.5917 7.71929 27.775 9.49753 28.4848 11.4867C29.1949 13.4761 29.4314 15.6764 29.1574 17.7711C28.8838 19.8659 28.0998 21.8553 26.9139 23.566C25.728 25.2767 24.1398 26.7084 22.2745 27.7004C20.4093 28.6921 18.2662 29.2438 16.1539 29.2758C14.0416 29.3078 11.9597 28.8204 10.095 27.895C8.23071 26.9695 6.58335 25.6063 5.33247 23.9036C4.08159 22.2009 3.22719 20.1587 2.88799 18.0748C2.54879 15.9907 2.72479 13.8646 3.37471 11.8812C3.86591 10.3817 4.62815 8.96409 5.60479 7.73561H4.12031V5.28185H9.93695V10.7135H7.48319V9.22937C6.68319 10.2355 6.05855 11.3967 5.65631 12.6255C5.12415 14.2511 4.98079 15.9951 5.25631 17.6969C5.59871 19.8137 6.58879 21.8649 8.06655 23.4457C9.83423 25.3363 12.2995 26.5542 14.8659 26.8207C17.432 27.0873 20.0992 26.4028 22.2173 24.9286C24.3353 23.4543 25.905 21.1903 26.5421 18.6899C27.1792 16.1894 26.8838 13.4524 25.735 11.142C24.5862 8.83161 22.5837 6.94841 20.1891 5.95897C17.7945 4.96921 15.0077 4.87385 12.6038 5.66361L11.8547 3.38361Z" fill="url(#paint0_linear)"/>
<path fill-rule="evenodd" clip-rule="evenodd" d="M15.7717 17.6707C14.349 17.5453 13.3135 16.8024 13.261 15.4531H15.1648C15.2066 15.882 15.4159 16.1433 15.7715 16.2586V14.6058L15.6695 14.5792C14.5689 14.2927 13.2504 13.9496 13.2504 12.3567C13.2504 11.0491 14.3488 10.2749 15.7715 10.1807V9.33334H16.441V10.1807C17.8741 10.2958 18.7948 11.028 18.8888 12.3567H16.9746C16.9328 11.9695 16.7341 11.7289 16.4412 11.6244V13.2458C16.5012 13.2626 16.562 13.2793 16.6234 13.2963L16.6235 13.2963C17.7099 13.5958 18.9935 13.9497 18.9935 15.4844C18.9935 16.614 18.0939 17.608 16.4412 17.6811V18.5284H15.7717V17.6707ZM15.7717 13.026V11.572C15.3846 11.6349 15.1439 11.8649 15.1439 12.2729C15.1439 12.6389 15.395 12.8587 15.7717 13.026ZM17.121 15.5471C17.121 15.9342 16.8595 16.2167 16.441 16.2898V14.8044C16.849 14.9613 17.121 15.1704 17.121 15.5471Z" fill="black"/>
<path fill-rule="evenodd" clip-rule="evenodd" d="M10.0741 19.8418H22.0366V21.6444H10.0741V19.8418Z" fill="black"/>
<defs>
<linearGradient id="paint0_linear" x1="2.04341" y1="13.297" x2="15.2222" y2="29.5764" gradientUnits="userSpaceOnUse">
<stop stop-color="#004CFF"/>
<stop offset="0.252131" stop-color="#00E0FB"/>
<stop offset="0.505709" stop-color="#87FF70"/>
<stop offset="0.755054" stop-color="#F8F500"/>
<stop offset="1" stop-color="#FF1A00"/>
</linearGradient>
</defs>
</svg>

<svg fill="none" viewBox="0 0 32 32"><path fill="#fff" fill-rule="evenodd" d="M32 16c0-2.094-.417-4.188-1.218-6.123a16.058 16.058 0 00-3.468-5.19 16.051 16.051 0 00-5.191-3.47A16.054 16.054 0 0016 0c-2.094 0-4.188.417-6.123 1.218a16.055 16.055 0 00-5.19 3.468 16.05 16.05 0 00-3.47 5.191A16.049 16.049 0 000 16c0 2.094.416 4.188 1.218 6.123a16.056 16.056 0 003.468 5.19 16.055 16.055 0 005.19 3.469A16.056 16.056 0 0016 32c2.094 0 4.188-.417 6.123-1.218a16.051 16.051 0 005.19-3.468 16.063 16.063 0 003.47-5.191A16.054 16.054 0 0032 16z" clip-rule="evenodd"/><path fill="url(#paint0_linear)" fill-rule="evenodd" d="M11.855 3.384a13.266 13.266 0 0113.213 2.914 13.155 13.155 0 013.417 5.189c.71 1.99.946 4.19.672 6.284a13.194 13.194 0 01-2.243 5.795 13.206 13.206 0 01-4.64 4.134 13.621 13.621 0 01-6.12 1.576 13.207 13.207 0 01-6.059-1.381 13.19 13.19 0 01-4.763-3.991 13.662 13.662 0 01-2.444-5.83 13.13 13.13 0 01.487-6.193 13.391 13.391 0 012.23-4.145H4.12V5.282h5.817v5.431H7.483V9.23a10.961 10.961 0 00-1.827 3.397 10.787 10.787 0 00-.4 5.07 11.107 11.107 0 002.81 5.75 10.952 10.952 0 006.8 3.375 11.023 11.023 0 007.351-1.892 11 11 0 004.325-6.24c.637-2.5.342-5.237-.807-7.547a10.919 10.919 0 00-5.546-5.183c-2.395-.99-5.181-1.085-7.585-.295l-.75-2.28z" clip-rule="evenodd"/><path fill="#000" fill-rule="evenodd" d="M15.772 17.67c-1.423-.125-2.459-.868-2.511-2.217h1.904c.042.429.25.69.607.806v-1.653l-.103-.027c-1.1-.286-2.419-.63-2.419-2.222 0-1.308 1.099-2.082 2.521-2.176v-.848h.67v.848c1.433.115 2.354.847 2.448 2.176h-1.914c-.042-.387-.24-.628-.534-.733v1.622l.182.05c1.087.3 2.37.654 2.37 2.188 0 1.13-.9 2.124-2.552 2.197v.847h-.67v-.857zm0-4.644v-1.454c-.387.063-.628.293-.628.7 0 .367.251.587.628.754zm1.349 2.521c0 .387-.261.67-.68.743v-1.486c.408.157.68.366.68.743zm-7.047 4.295h11.963v1.802H10.074v-1.802z" clip-rule="evenodd"/><defs><linearGradient id="paint0_linear" x1="2.043" x2="15.222" y1="13.297" y2="29.576" gradientUnits="userSpaceOnUse"><stop stop-color="#004CFF"/><stop offset=".252" stop-color="#00E0FB"/><stop offset=".506" stop-color="#87FF70"/><stop offset=".755" stop-color="#F8F500"/><stop offset="1" stop-color="#FF1A00"/></linearGradient></defs></svg>
